Assets/Social Icons/Github.svg

<svg width="24" height="24" viewBox="0 0 24 24" fill="none" xmlns="http://www.w3.org/2000/svg">
<path fill-rule="evenodd" clip-rule="evenodd" d="M12.0216 0.0899658C5.40735 0.0899658 0.0438232 5.5439 0.0438232 12.2723C0.0438232 17.6548 3.47582 22.2213 8.23495 23.8321C8.8336 23.945 9.05335 23.5679 9.05335 23.2461C9.05335 22.9556 9.04225 21.996 9.0371 20.978C5.70485 21.715 5.0017 19.5406 5.0017 19.5406C4.45685 18.1325 3.67179 17.7581 3.67179 17.7581C2.58504 17.002 3.75371 17.0175 3.75371 17.0175C4.95648 17.1033 5.5898 18.2729 5.5898 18.2729C6.6581 20.1353 8.39185 19.5969 9.07535 19.2856C9.18285 18.4985 9.4933 17.9606 9.8358 17.6566C7.1754 17.3486 4.3787 16.304 4.3787 11.636C4.3787 10.3059 4.8466 9.21915 5.6128 8.366C5.48845 8.05895 5.07845 6.8201 5.72885 5.14205C5.72885 5.14205 6.73465 4.81464 9.0236 6.3908C9.97905 6.1209 11.0037 5.9855 12.0216 5.9809C13.0395 5.9855 14.065 6.1209 15.0222 6.3908C17.3083 4.81464 18.3128 5.14205 18.3128 5.14205C18.9647 6.8201 18.5546 8.05895 18.4302 8.366C19.1982 9.21915 19.6629 10.3059 19.6629 11.636C19.6629 16.3151 16.8609 17.3453 14.1937 17.6469C14.6233 18.025 15.0061 18.7663 15.0061 19.903C15.0061 21.5328 14.9922 22.8447 14.9922 23.2461C14.9922 23.5703 15.2078 23.9501 15.815 23.8305C20.5715 22.2178 23.9992 17.653 23.9992 12.2723C23.9992 5.5439 18.6365 0.0899658 12.0216 0.0899658Z" fill="white"/>
<path fill-rule="evenodd" clip-rule="evenodd" d="M4.58043 17.5812C4.55405 17.6419 4.46043 17.6598 4.37514 17.6183C4.28826 17.5785 4.23947 17.496 4.26763 17.4353C4.29342 17.373 4.38724 17.3558 4.47391 17.3972C4.56099 17.4371 4.61057 17.5204 4.58043 17.5812Z" fill="white"/>
<path fill-rule="evenodd" clip-rule="evenodd" d="M5.06561 18.1315C5.00846 18.1854 4.89679 18.1604 4.82102 18.0752C4.74267 17.9903 4.728 17.8767 4.78591 17.822C4.84482 17.7682 4.95312 17.7934 5.03166 17.8783C5.11001 17.9643 5.12531 18.077 5.06561 18.1315Z" fill="white"/>
<path fill-rule="evenodd" clip-rule="evenodd" d="M5.53787 18.8331C5.46447 18.8849 5.34447 18.8363 5.27027 18.728C5.19692 18.6197 5.19692 18.4897 5.27187 18.4377C5.34627 18.3856 5.46447 18.4324 5.53967 18.54C5.61282 18.6499 5.61282 18.78 5.53787 18.8331Z" fill="white"/>
<path fill-rule="evenodd" clip-rule="evenodd" d="M6.18487 19.511C6.11922 19.5846 5.97937 19.5648 5.87702 19.4644C5.77232 19.3661 5.74317 19.2267 5.80902 19.1531C5.87547 19.0793 6.01607 19.1 6.11922 19.1997C6.22317 19.2977 6.25487 19.4382 6.18487 19.511Z" fill="white"/>
<path fill-rule="evenodd" clip-rule="evenodd" d="M7.07738 19.9045C7.04843 19.9999 6.91373 20.0433 6.77808 20.0028C6.64263 19.961 6.55393 19.8492 6.58133 19.7528C6.60948 19.6568 6.74478 19.6116 6.88143 19.655C7.01668 19.6965 7.10558 19.8075 7.07738 19.9045Z" fill="white"/>
<path fill-rule="evenodd" clip-rule="evenodd" d="M8.05767 19.9776C8.06102 20.0781 7.94597 20.1614 7.80357 20.163C7.66037 20.1664 7.54452 20.0851 7.54297 19.9863C7.54297 19.8848 7.65542 19.8023 7.79862 19.7999C7.94102 19.797 8.05767 19.8777 8.05767 19.9776Z" fill="white"/>
<path fill-rule="evenodd" clip-rule="evenodd" d="M8.96985 19.8196C8.9869 19.9176 8.8879 20.0183 8.7465 20.0449C8.60745 20.071 8.47875 20.0104 8.4611 19.9132C8.4438 19.8127 8.5446 19.7121 8.68345 19.686C8.82505 19.661 8.9518 19.7199 8.96985 19.8196Z" fill="white"/>
</svg>

<svg width="24" height="24" fill="none" xmlns="http://www.w3.org/2000/svg"><path fill-rule="evenodd" clip-rule="evenodd" d="M12.022.09C5.407.09.044 5.544.044 12.272c0 5.383 3.432 9.95 8.19 11.56.6.113.82-.264.82-.586 0-.29-.012-1.25-.017-2.268-3.332.737-4.035-1.437-4.035-1.437-.545-1.409-1.33-1.783-1.33-1.783-1.087-.756.082-.74.082-.74 1.202.085 1.836 1.255 1.836 1.255 1.068 1.862 2.802 1.324 3.485 1.013.108-.788.418-1.325.76-1.63-2.66-.307-5.456-1.352-5.456-6.02 0-1.33.468-2.417 1.234-3.27-.125-.307-.535-1.546.116-3.224 0 0 1.006-.327 3.295 1.249a11.3 11.3 0 012.998-.41c1.018.005 2.043.14 3 .41 2.286-1.576 3.29-1.249 3.29-1.249.653 1.678.243 2.917.118 3.224.768.853 1.233 1.94 1.233 3.27 0 4.68-2.802 5.71-5.47 6.01.43.379.813 1.12.813 2.257 0 1.63-.014 2.942-.014 3.343 0 .324.216.704.823.585 4.757-1.613 8.184-6.178 8.184-11.559C24 5.544 18.637.09 12.022.09z" fill="#fff"/><path fill-rule="evenodd" clip-rule="evenodd" d="M4.58 17.581c-.026.06-.12.079-.205.037-.087-.04-.136-.122-.107-.183.025-.062.12-.08.206-.038.087.04.137.123.106.184zM5.066 18.131c-.058.054-.17.03-.245-.056-.078-.085-.093-.198-.035-.253.059-.054.167-.029.246.056.078.086.093.199.034.253zM5.538 18.833c-.074.052-.194.003-.268-.105-.073-.108-.073-.238.002-.29.074-.052.192-.006.268.102.073.11.073.24-.002.293zM6.185 19.511c-.066.074-.206.054-.308-.047-.105-.098-.134-.237-.068-.31.066-.075.207-.054.31.046.104.098.136.238.066.311zM7.077 19.904c-.029.096-.163.14-.299.099-.135-.042-.224-.154-.197-.25.028-.096.164-.141.3-.098.136.041.225.152.196.25zM8.058 19.978c.003.1-.112.183-.254.185-.144.003-.26-.078-.261-.177 0-.101.112-.184.256-.186.142-.003.259.078.259.178zM8.97 19.82c.017.098-.082.198-.224.225-.139.026-.267-.035-.285-.132-.017-.1.084-.2.222-.227.142-.025.269.034.287.134z" fill="#fff"/></svg>
